build/img/parteners/notion-logo.svg

<svg width="147" height="48" viewBox="0 0 147 48" fill="none" xmlns="http://www.w3.org/2000/svg">
<g style="mix-blend-mode:luminosity" clip-path="url(#clip0_333_1361)">
<path d="M51.525 34.7749V20.2199H51.8176L63.7715 34.7749H67.5333V13.4006H63.3536V27.919H63.061L51.1071 13.4006H47.3453V34.7749H51.525ZM79.3618 35.1049C84.879 35.1049 88.2646 31.9519 88.2646 26.6725C88.2646 21.4297 84.879 18.2401 79.3618 18.2401C73.8864 18.2401 70.4591 21.4297 70.4591 26.6725C70.5009 31.9519 73.8446 35.1049 79.3618 35.1049ZM79.3618 32.0252C76.436 32.0252 74.7642 30.0821 74.7642 26.6725C74.7642 23.2995 76.436 21.3198 79.3618 21.3198C82.2876 21.3198 83.9595 23.2995 83.9595 26.6725C83.9595 30.0821 82.2876 32.0252 79.3618 32.0252ZM92.0681 14.6105V18.68H89.1423V21.6131H92.0681V30.4487C92.0681 33.6017 93.74 34.8483 98.0033 34.8483C98.7974 34.8483 99.5916 34.7749 100.219 34.6649V31.8053C99.717 31.8419 99.3826 31.8786 98.7974 31.8786C97.042 31.8786 96.2478 31.182 96.2478 29.5688V21.6131H100.219V18.68H96.2478V14.6105H92.0681ZM102.726 34.7749H106.906V18.5701H102.726V34.7749ZM104.816 15.8937C106.196 15.8937 107.324 14.9038 107.324 13.6939C107.324 12.4474 106.196 11.4575 104.816 11.4575C103.437 11.4575 102.308 12.4474 102.308 13.6939C102.308 14.9038 103.437 15.8937 104.816 15.8937ZM118.358 35.1049C123.876 35.1049 127.261 31.9519 127.261 26.6725C127.261 21.4297 123.876 18.2401 118.358 18.2401C112.883 18.2401 109.456 21.4297 109.456 26.6725C109.456 31.9519 112.799 35.1049 118.358 35.1049ZM118.358 32.0252C115.433 32.0252 113.761 30.0821 113.761 26.6725C113.761 23.2995 115.433 21.3198 118.358 21.3198C121.242 21.3198 122.956 23.2995 122.956 26.6725C122.914 30.0821 121.242 32.0252 118.358 32.0252ZM129.727 34.7749H133.907V25.3526C133.907 22.9696 135.495 21.4664 137.961 21.4664C140.511 21.4664 141.681 22.7129 141.681 25.1693V34.7749H145.861V24.2894C145.861 20.4032 143.604 18.2401 139.508 18.2401C136.749 18.2401 134.91 19.34 134.032 21.1731H133.74V18.5701H129.685C129.727 18.5701 129.727 34.7749 129.727 34.7749Z" fill="black"/>
<path fill-rule="evenodd" clip-rule="evenodd" d="M7.26912 12.0326C8.48563 12.9024 8.92564 12.8337 11.2034 12.6964L32.6605 11.5519C33.1264 11.5519 32.7381 11.1399 32.5828 11.0941L29.011 8.82806C28.338 8.37028 27.4062 7.82093 25.672 7.95826L4.91376 9.30874C4.16315 9.37741 4.00785 9.72075 4.31844 9.97254L7.26912 12.0326ZM8.56328 16.4502V36.4098C8.56328 37.4857 9.15859 37.8748 10.5304 37.8061L34.1099 36.593C35.4818 36.5243 35.637 35.7918 35.637 34.922V15.0998C35.637 14.23 35.2488 13.7493 34.4205 13.818L9.77979 15.0998C8.87388 15.1684 8.56328 15.5804 8.56328 16.4502ZM31.8322 17.5261C31.9875 18.1212 31.8322 18.7392 31.1593 18.8079L30.0204 19.0139V33.7547C29.0368 34.2125 28.1309 34.4871 27.3544 34.4871C26.1379 34.4871 25.8273 34.1438 24.9214 33.1367L17.493 22.8135V32.7933L19.8483 33.2511C19.8483 33.2511 19.8483 34.4642 17.9589 34.4642L12.7305 34.7389C12.5752 34.4642 12.7305 33.8005 13.2481 33.6631L14.6199 33.3198V20.1355L12.7305 19.9981C12.5752 19.403 12.9634 18.5332 14.0246 18.4645L19.6413 18.1212L27.3803 28.5588V19.3343L25.4132 19.1283C25.2579 18.3959 25.8791 17.8465 26.6297 17.7778L31.8322 17.5261ZM3.17958 7.47759L24.792 6.08133C27.4321 5.87532 28.1309 6.01266 29.7875 7.08847L36.6724 11.3688C37.8112 12.1013 38.1995 12.3073 38.1995 13.1084V36.6159C38.1995 38.0808 37.6042 38.9506 35.4817 39.0879L10.401 40.4384C8.79623 40.5071 8.04562 40.3011 7.21736 39.3626L2.11838 33.5258C1.21247 32.45 0.824219 31.6488 0.824219 30.7104V9.81231C0.824219 8.59917 1.44541 7.61492 3.17958 7.47759Z" fill="black"/>
</g>
<defs>
<clipPath id="clip0_333_1361">
<rect width="145.551" height="48" fill="white" transform="translate(0.824219)"/>
</clipPath>
</defs>
</svg>

<svg width="147" height="48" fill="none" xmlns="http://www.w3.org/2000/svg"><g style="mix-blend-mode:luminosity" clip-path="url(#a)" fill="#000"><path d="M51.525 34.775V20.22h.293l11.954 14.555h3.761V13.4h-4.18v14.518h-.292L51.107 13.401h-3.762v21.374h4.18Zm27.837.33c5.517 0 8.903-3.153 8.903-8.432 0-5.243-3.386-8.433-8.903-8.433-5.476 0-8.903 3.19-8.903 8.433.042 5.279 3.386 8.432 8.903 8.432Zm0-3.08c-2.926 0-4.598-1.943-4.598-5.352 0-3.373 1.672-5.353 4.598-5.353s4.598 1.98 4.598 5.352c0 3.41-1.672 5.353-4.598 5.353Zm12.706-17.414v4.069h-2.926v2.933h2.926v8.836c0 3.153 1.672 4.4 5.935 4.4.794 0 1.589-.074 2.216-.184v-2.86c-.502.037-.836.074-1.422.074-1.755 0-2.55-.697-2.55-2.31v-7.956h3.972V18.68h-3.971v-4.07h-4.18Zm10.658 20.164h4.18V18.57h-4.18v16.205Zm2.09-18.881c1.38 0 2.508-.99 2.508-2.2 0-1.247-1.128-2.237-2.508-2.237-1.379 0-2.508.99-2.508 2.237 0 1.21 1.129 2.2 2.508 2.2Zm13.542 19.21c5.518 0 8.903-3.152 8.903-8.431 0-5.243-3.385-8.433-8.903-8.433-5.475 0-8.902 3.19-8.902 8.433 0 5.279 3.343 8.432 8.902 8.432Zm0-3.079c-2.925 0-4.597-1.943-4.597-5.352 0-3.373 1.672-5.353 4.597-5.353 2.884 0 4.598 1.98 4.598 5.352-.042 3.41-1.714 5.353-4.598 5.353Zm11.369 2.75h4.18v-9.422c0-2.383 1.588-3.887 4.054-3.887 2.55 0 3.72 1.247 3.72 3.703v9.606h4.18V24.289c0-3.886-2.257-6.049-6.353-6.049-2.759 0-4.598 1.1-5.476 2.933h-.292V18.57h-4.055c.042 0 .042 16.205.042 16.205Z"/><path fill-rule="evenodd" clip-rule="evenodd" d="M7.27 12.033c1.216.87 1.656.8 3.933.663l21.457-1.144c.466 0 .078-.412-.077-.458L29.01 8.828c-.673-.458-1.605-1.007-3.339-.87L4.914 9.308c-.75.07-.906.413-.596.665l2.951 2.06Zm1.293 4.417v19.96c0 1.076.596 1.465 1.967 1.396l23.58-1.213c1.372-.069 1.527-.801 1.527-1.671V15.1c0-.87-.388-1.35-1.217-1.282L9.78 15.1c-.906.068-1.217.48-1.217 1.35Zm23.27 1.076c.155.595 0 1.213-.674 1.282l-1.139.206v14.74c-.983.459-1.89.733-2.666.733-1.216 0-1.527-.343-2.433-1.35l-7.428-10.323v9.98l2.355.457s0 1.213-1.89 1.213l-5.227.275c-.156-.275 0-.938.517-1.076l1.372-.343V20.136l-1.89-.138c-.155-.595.233-1.465 1.295-1.534l5.616-.343 7.74 10.438v-9.225l-1.968-.206c-.155-.732.466-1.282 1.217-1.35l5.202-.252ZM3.18 7.478 24.792 6.08c2.64-.206 3.339-.068 4.995 1.007l6.885 4.28c1.14.733 1.528.94 1.528 1.74v23.508c0 1.465-.596 2.335-2.718 2.472L10.4 40.438c-1.605.07-2.355-.137-3.184-1.075l-5.099-5.837C1.212 32.45.824 31.649.824 30.71V9.812c0-1.213.621-2.197 2.356-2.334Z"/></g><defs><clipPath id="a"><path fill="#fff" transform="translate(.824)" d="M0 0h145.551v48H0z"/></clipPath></defs></svg>
